X: 31732
T: Pat Foley's
R: jig
M: 6/8
K: Dmajor
|:A|DFA DGB|Adc d2e|fdA AGF|GFG EGF|
DFA DGB|Adc D2e|fdA AGF|EFE D2:|
|:c/d/|ecA AGF|GEE aba|gfe edB|cAA A2F|
GBe FAd|cBc d2e|fdA AGF|EFE D2:|

